X: 31
T:Rachel Dafydd Ifan
M:2/4
L:1/8
Q:180
C:Trad
S:Blodau'r Grug Collection Vol. 2
A:Wales
Z:brian_martin12345@yahoo.com
K:A
E/A/|cc cc|e/f/e/d/ ce|BB Bc|d/e/d/c/ dE/A/|cc cc|e/f/e/d/ ce|!
dd/B/ Ge/d/|c/B/A/G/ A:||
e|a>a ae|e/f/e/d/ ce|a>a ae|!d/e/d/c/ BA|a>a ae|e/f/e/d/ ce|
dd/B/ G/B/e/d/|c/B/A/G/ A:||
